X: 535
T: New Tambourine
N: Pub: J. Walsh, London, 1748
S: 2: CCD2  http://petrucci.mus.auth.gr/imglnks/usimg/6/61/IMSLP173105-PMLP149069-caledoniancountr00ingl.pdf p.74 #334
S: 4: ACMV  http://archive.org/details/acompositemusicv01rugg p.4:74 #334
Z: 2012 John Chambers <jc:trillian.mit.edu>
M: C
L: 1/8
K: C
% - - - - - - - - - - - - - - - - - - - - - - - - -
V: 1
   G | A/B/c cB A2 G2 | AGAB  c/B/c/d/ cG | A/B/c cB A2 G2    | AGAB c3 :|
|: c | e/f/g gf e2 d2 | g2 g/a/g/f/ e2 d2 | e/f/g gf e2 d/e/f | ecGB c3 :|
% - - - - - - - - - - - - - - - - - - - - - - - - -
V: 2 clef=bass middle=d
   z | f2  ec fF  ec | fefd  c2  ec | f2  ec fF  ec | fefd  c3 :|
|: z | c'2 bg c'c bg | ec zg c'c bg | c'2 bg c'c bg | c'agG c3 :|
% - - - - - - - - - - - - - - - - - - - - - - - - -
%%begintext align
%% All four fall back and forward again and turn single, Men change Places with the Wo. .|
%% 1st Man change with 2d Wo. 2d Man with the 1st Wo. :|
%% 1st Cu. being in 2d Cu. Place Jigg it up. All four Lead to the Wall, back again .|
%% 1st Cu. go the half figure thro' 2d Cu. turn hands with your Partner, and jump and cast off :|
%%endtext

%%sep 1 1 500
%%sep 1 1 500
